X:854
T:Neil Gow's Strathspey 
C:Joe Buchanan's Scottish Tome - Page 417.3
I:417 3
R:Strathspey
Z:Carl Allison
L:1/8
M:4/4
K:A
f | "A"e<ca>e "Bm"f<B"E7"B>f | "A"e<c"A7"a>e "D"e2 (f>g) | "D"a/g/f/e/ "A"a>g "Bm"f<BB>g | "D"a>f"E7"e<c "A"A3 :|
E | "A"A<Ac>A "Bm"B<F"E7"F>B | "A"A<Ac>A "A7"a>e"D"f<a | "A"e>ac>a "Bm"B<FF>g | "A"a>f"E7"e<c "A"A3 :|

